X: 0
T: The Cliffs at the Lizard
C: Lizzie Pridmore
O: Cornwall
K: C
L: 1/4
M: 4/4
%%transpose +2
%%text E minor drones
%%text 🄰
DAAD | D [L:1/8] dA cAFE | [L:1/4] DAA G/F/ |G>A F/A/E/A/ |
DAAD | D [L:1/8] dA cAFA | [L:1/4] G>A F>A | \
[1 G/F/E D2 :| [2 G/F/ ED A/c/ ||
%%text 🄱
d d d e/d/ | c>A e/A/c/A/ | ddd e/d/ | c/A/ G A>c |
ddd e/d/ | c>A e/A/c/A/ | d>A c>A | \
[1 G/F/ ED A/c/ :| [2 G/F/ E D2 |]